X:1
T:Title
%%score { ( 1 3 ) | ( 2 4 ) }
L:1/8
Q:1/4=108
M:4/4
K:F
V:1 treble nm="Grand Piano"
V:3 treble 
V:2 bass 
V:4 bass 
V:1
 F3 F F2 [EG]2 | A2 c2 A2 [B,EG]2 | [A,F]4 [CEG]4 | [CFA]8 | [EG]3 [EG] [EG]2 [FA]2 | %5
w: Robert~Lowry * * *|||||
 [GB]2 [Ec]2 [GB]2 A2 | G4 =B4 | [Ec]8 | c3 c B2 A2 | [EG]2 [GB]2 [FA]2 G2 | F4 A4 | [EG]8 | %12
w: |||||||
 [FA]3 [FA] [FB]2 [Fc]2 | [Fd]2 [DFB]2 [DFB]2 [B,EG]2 | [A,CF]4 [CE]4 | [F,A,CF]8 |] %16
w: ||||
V:2
 [F,A,C]3 [F,A,C] [F,A,C]2 [C,C]2 | [F,CF]2 [F,A,F]2 [F,CF]2 C,2 | D,4 C,4 | F,8 | %4
 [C,C]3 [C,C] [C,C]2 [C,C]2 | [C,C]2 [C,C]2 [E,C]2[K:treble] [F,CF]2 | [G,CE]4 [G,F]4 | [C,G,]8 | %8
 [F,A,F]3 [F,A,F] [F,DF]2 [F,CF]2 | [C,C]2 [C,C]2 [C,C]2 [B,CE]2 | [A,C]4 [F,CF]4 | [C,C]8 | %12
 [F,C]3 [_E,C] [D,B,]2 [C,A,]2 | [B,,B,]2 B,,2 B,,2 B,,2 | C,4 z2 B,2 | F,,8 |] %16
V:3
 x8 | x8 | x8 | x8 | x8 | x8 | x8 | x8 | x8 | x8 | x8 | x8 | x8 | x8 | z4 G,2 z2 | x8 |] %16
V:4
 x8 | x8 | x8 | x8 | x8 | x6[K:treble] x2 | x8 | x8 | x8 | x8 | x8 | x8 | x8 | x8 | z4 C,4 | x8 |] %16

